public/topics/31.svg

<svg width="250" height="250" viewBox="0 0 250 250" fill="none" xmlns="http://www.w3.org/2000/svg">
<rect width="250" height="250" rx="30" fill="#33CC33"/>
<path d="M87 115C97.9333 117.4 107 122.133 114.2 129.2C121.4 136.267 125 144.467 125 153.8C125 159.4 123.667 164.867 121 170.2C116.733 178.733 110.333 185.133 101.8 189.4C93.4 193.667 83.6667 195.8 72.6 195.8C65.6667 195.8 59.4667 194.533 54 192C48.5333 189.333 43.1333 185.8 37.8 181.4C35.8 179.533 34 176.867 32.4 173.4C30.9333 169.933 30.2 167.067 30.2 164.8C30.2 161.867 31 159.533 32.6 157.8C34.3333 155.933 36.6 155 39.4 155C42.2 155 44.4 155.667 46 157C47.6 158.333 49.5333 160.467 51.8 163.4C53.9333 166.2 55.8667 168.467 57.6 170.2C59.3333 171.8 61.6667 173.2 64.6 174.4C67.5333 175.6 71.2 176.2 75.6 176.2C84.5333 176.2 91.5333 174 96.6 169.6C101.667 165.2 104.2 159 104.2 151C104.2 147.933 102.533 144.867 99.2 141.8C95.8667 138.6 92.7333 136.333 89.8 135C88.0667 134.067 84.8667 133.133 80.2 132.2C73.9333 130.6 69.2 129.067 66 127.6C62.9333 126 61.4 123.533 61.4 120.2C61.4 117.933 62.4 115.733 64.4 113.6C66.4 111.333 69.4 108.533 73.4 105.2C77.4 101.867 80.4 99.1333 82.4 97C84.4 94.7333 85.4 92.4667 85.4 90.2C82.8667 89.5333 79.0667 89.2 74 89.2C71.7333 89.2 68.3333 89.3333 63.8 89.6C59.8 89.8667 56.7333 90 54.6 90C49.8 90 45.6667 89.2 42.2 87.6C38.8667 86 37.2 83.9333 37.2 81.4C37.2 78.6 37.4667 76.4 38 74.8C38.5333 73.0667 39.5333 72 41 71.6C41.9333 71.2 43.6 71 46 71C52.5333 71 58.2 71.2 63 71.6C68.3333 71.8667 72.4 72 75.2 72L91.8 71.8C105.4 71.8 112.2 75.0667 112.2 81.6C112.2 86.5333 109.667 92.1333 104.6 98.4C99.6667 104.533 93.8 110.067 87 115ZM195.584 89.8C194.251 115.933 193.584 136.733 193.584 152.2C193.584 160.2 193.784 167.8 194.184 175C195.251 175.8 197.318 176.2 200.384 176.2L204.984 176C206.851 175.733 208.584 175.6 210.184 175.6C213.651 175.6 216.318 176.2 218.184 177.4C220.184 178.6 221.184 180.933 221.184 184.4C221.184 187.733 220.184 190.333 218.184 192.2C216.318 194.067 212.384 195 206.384 195C201.318 195 195.184 194.6 187.984 193.8C186.251 193.667 184.584 193.533 182.984 193.4C181.384 193.267 179.918 193.2 178.584 193.2C171.251 193.333 165.784 193.6 162.184 194C158.584 194.4 154.518 194.6 149.984 194.6C145.851 194.6 143.784 191.467 143.784 185.2C143.784 179.2 147.651 176.2 155.384 176.2C156.584 176.2 158.518 176.333 161.184 176.6C163.451 177 165.851 177.2 168.384 177.2C169.851 177.2 171.051 177.133 171.984 177C172.118 168.067 172.584 155.067 173.384 138C174.184 118 174.584 103.2 174.584 93.6C173.918 93.7333 171.584 94.6667 167.584 96.4C161.451 99.4667 156.918 101 153.984 101C152.384 101 150.918 100.2 149.584 98.6C148.251 96.8667 147.584 94.8667 147.584 92.6C147.584 90.3333 148.984 88.1333 151.784 86C154.584 83.8667 159.118 81.0667 165.384 77.6C168.851 75.8667 172.184 73.9333 175.384 71.8C176.184 71.2667 177.318 70.7333 178.784 70.2C180.384 69.6667 181.584 69.4 182.384 69.4C185.851 69.4 188.984 70.1333 191.784 71.6C194.718 72.9333 196.184 74.7333 196.184 77L195.584 89.8Z" fill="white"/>
</svg>

<svg xmlns="http://www.w3.org/2000/svg" width="250" height="250" fill="none" viewBox="0 0 250 250"><rect width="250" height="250" fill="#3c3" rx="30"/><path fill="#fff" d="M87 115q16.4 3.6 27.2 14.2t10.8 24.6q0 8.4-4 16.4-6.4 12.8-19.2 19.2-12.6 6.4-29.2 6.4-10.4 0-18.6-3.8-8.2-4-16.2-10.6-3-2.8-5.4-8-2.2-5.2-2.2-8.6 0-4.4 2.4-7 2.6-2.8 6.8-2.8t6.6 2 5.8 6.4q3.2 4.2 5.8 6.8 2.6 2.4 7 4.2t11 1.8q13.4 0 21-6.6t7.6-18.6q0-4.6-5-9.2-5-4.8-9.4-6.8-2.6-1.4-9.6-2.8-9.4-2.4-14.2-4.6-4.6-2.4-4.6-7.4 0-3.4 3-6.6 3-3.4 9-8.4t9-8.2q3-3.4 3-6.8-3.8-1-11.4-1-3.4 0-10.2.4-6 .4-9.2.4-7.2 0-12.4-2.4-5-2.4-5-6.2 0-4.2.8-6.6.8-2.6 3-3.2 1.4-.6 5-.6 9.8 0 17 .6 8 .4 12.2.4l16.6-.2q20.4 0 20.4 9.8 0 7.4-7.6 16.8-7.4 9.2-17.6 16.6m108.584-25.2q-2 39.2-2 62.4 0 12 .6 22.8 1.6 1.2 6.2 1.2l4.6-.2q2.8-.4 5.2-.4 5.2 0 8 1.8 3 1.8 3 7 0 5-3 7.8-2.8 2.8-11.8 2.8-7.6 0-18.4-1.2a790 790 0 0 1-5-.4q-2.4-.2-4.4-.2-11 .2-16.4.8t-12.2.6q-6.2 0-6.2-9.4 0-9 11.6-9 1.8 0 5.8.4 3.4.6 7.2.6 2.2 0 3.6-.2.2-13.4 1.4-39 1.2-30 1.2-44.4-1 .2-7 2.8-9.2 4.6-13.6 4.6-2.4 0-4.4-2.4-2-2.6-2-6t4.2-6.6 13.6-8.4a93 93 0 0 0 10-5.8q1.2-.8 3.4-1.6 2.4-.8 3.6-.8 5.2 0 9.4 2.2 4.4 2 4.4 5.4z"/></svg>
